public/editor-src/editor/icons/editor/user-roles.svg

<svg id="nc-user-roles" width="16px" height="16px" viewBox="0 0 16 16" version="1.1" xmlns="http://www.w3.org/2000/svg" xmlns:xlink="http://www.w3.org/1999/xlink">
    <g stroke="none" stroke-width="1" fill="currentColor" fill-rule="evenodd">
        <path 
        d="M3,1 C3.6,1 4,1.4 4,2 C4,2.6 4.4,3 5,3 C5.6,3 6,2.6 6,2 C6,1.4 6.4,1 7,1 L7,1 L9,1 C9.6,1 10,1.4 10,2 C10,2.6 10.4,3 11,3 C11.6,3 12,2.6 12,2 C12,1.4 12.4,1 13,1 L13,1 L15,1 C15.6,1 16,1.4 16,2 L16,2 L16,14 C16,14.6 15.6,15 15,15 L15,15 L1,15 C0.4,15 0,14.6 0,14 L0,14 L0,2 C0,1.4 0.4,1 1,1 L1,1 Z M7,6 L4,6 C3.44771525,6 3,6.44771525 3,7 L3,7 L3,10 C3,10.5522847 3.44771525,11 4,11 L4,11 L7,11 C7.55228475,11 8,10.5522847 8,10 L8,10 L8,7 C8,6.44771525 7.55228475,6 7,6 L7,6 Z M12.5,9 L9.5,9 C9.22385763,9 9,9.22385763 9,9.5 C9,9.77614237 9.22385763,10 9.5,10 L9.5,10 L12.5,10 C12.7761424,10 13,9.77614237 13,9.5 C13,9.22385763 12.7761424,9 12.5,9 L12.5,9 Z M12.5,7 L9.5,7 C9.22385763,7 9,7.22385763 9,7.5 C9,7.77614237 9.22385763,8 9.5,8 L9.5,8 L12.5,8 C12.7761424,8 13,7.77614237 13,7.5 C13,7.22385763 12.7761424,7 12.5,7 L12.5,7 Z"  
        fill="currentColor" 
        fill-rule="nonzero"
        ></path>
    </g>
</svg>

<svg xmlns="http://www.w3.org/2000/svg" width="16" height="16"><path fill="currentColor" fill-rule="nonzero" d="M3 1c.6 0 1 .4 1 1s.4 1 1 1 1-.4 1-1 .4-1 1-1h2c.6 0 1 .4 1 1s.4 1 1 1 1-.4 1-1 .4-1 1-1h2c.6 0 1 .4 1 1v12c0 .6-.4 1-1 1H1c-.6 0-1-.4-1-1V2c0-.6.4-1 1-1Zm4 5H4a1 1 0 0 0-1 1v3a1 1 0 0 0 1 1h3a1 1 0 0 0 1-1V7a1 1 0 0 0-1-1Zm5.5 3h-3a.5.5 0 0 0 0 1h3a.5.5 0 1 0 0-1Zm0-2h-3a.5.5 0 0 0 0 1h3a.5.5 0 1 0 0-1Z"/></svg>
